; Generated by Lychee Slicer 6.0.2
; 1. Okt. 2024 20:45

; Generated by Kiri:Moto 4.0.D0
; Tue Oct 01 2024 20:45:15 GMT+0200 (Mitteleuropäische Sommerzeit)
; Bed left:0 right:210 top:210 bottom:0
; Bed type: fixed
; Target: internal
; --- process ---
; processName = default
; sliceHeight = 0.1
; sliceShells = 4
; sliceShellOrder = in-out
; sliceLayerStart = position
; sliceLayerStartX = 110
; sliceLayerStartY = 220
; sliceLineWidth = 0
; sliceFillGrow = 0
; sliceFillAngle = 45
; sliceFillWidth = 1
; sliceFillOverlap = 0.3
; sliceFillSparse = 1
; sliceFillRepeat = 1
; sliceFillRate = 40
; sliceSolidRate = 0
; sliceFillType = linear
; sliceSupportDensity = 0.2
; sliceSupportOffset = 1
; sliceSupportGap = 1
; sliceSupportSize = 6
; sliceSupportArea = 1
; sliceSupportSpan = 5
; sliceSupportGrow = 1
; sliceSupportExtra = 2
; sliceSupportAngle = 45
; sliceSupportNozzle = 0
; sliceSupportEnable = false
; sliceSupportOutline = true
; supportShape = cube
; supportMethod = everywhere
; sliceSolidMinArea = 1
; sliceBottomLayers = 5
; sliceTopLayers = 5
; firstSliceHeight = 0.32
; firstLayerRate = 10
; firstLayerFillRate = 20
; firstLayerPrintMult = 1
; firstLayerLineMult = 1
; firstLayerYOffset = 0
; firstLayerNozzleTemp = 210
; firstLayerBedTemp = 70
; firstLayerBrim = 0
; firstLayerBrimIn = 0
; firstLayerBrimTrig = 0
; firstLayerBrimGap = 0
; firstLayerBeltLead = 3
; firstLayerBeltBump = 0
; firstLayerFanSpeed = 0
; firstLayerFlatten = 0
; outputRaft = false
; outputRaftSpacing = 0.1
; outputDraftShield = false
; outputTemp = 200
; outputBedTemp = 60
; outputFeedrate = 50
; outputFinishrate = 30
; outputSeekrate = 60
; outputShellMult = 1.2
; outputFillMult = 1.15
; outputSparseMult = 1.25
; outputFanSpeed = 254.99999999999997
; outputRetractDist = 4
; outputRetractSpeed = 40
; outputRetractWipe = 0
; outputRetractDwell = 0
; outputBrimCount = 0
; outputBrimOffset = 0
; outputShortPoly = 50
; outputMinSpeed = 20
; outputCoastDist = 0
; outputPurgeTower = 0
; outputBeltFirst = false
; outputAvoidGaps = false
; outputAlternating = false
; outputLayerRetract = true
; outputOriginCenter = false
; outputLoops = 0
; outputInvertX = false
; outputInvertY = false
; sliceDetectThin = off
; sliceMinHeight = 0
; sliceAdaptive = false
; zHopDistance = 0.2
; arcTolerance = 0
; antiBacklash = 0
; ranges = []
; sName =
; beltAnchor = 3
; detectThinWalls = true
; gcodePause =
; sliceSolidLayers = 5
; sliceSupportType = manual
; ironing = none
; ironingOnlyOnLatest = false
; ironingFillSpaceMult = 0.15
; ironingFastLineSize = 2.3
; ironingFastFillSpaceMult = 0.76
; ironingFillSpeed = 45
; outputLoopLayers =
; outputBrimOnlyOnExternal = true
; sliceSupportRaftOffset = 2
; --- startup ---
G21                                ; set metrics values
M104 S210 T0                       ; set extruder temperature
M140 S70 T0                        ; set bed temperature
G91                                ; set relative positioning mode
G28                                ; home
;G29                                ; bed leveling
G90                                ; set absolute positioning mode
M117                                ; Purge extrudeur
G92 E0                             ; Reset extrudeur
M201 X800 Y800                                   ; Set max acceleration
M205 X10 Z0.3                     ; Set Jerk
M109 S210 T0                       ; set and wait extruder temperature
M190 S70 T0                        ; set and wait bed temperature
G1 Z1.0 F3000                      ; Prepare head for first purge line
M83                                ; set relative positioning for extruder
G1 X0.1 Y20 Z0.3 F5000.0           ; Set head to first line start position
G1 X0.1 Y190 Z0.3 F750.0 E15       ; First line
G1 X0.4 Y190 Z0.3 F5000.0          ; Move slightly on the side
G1 X0.4 Y20 Z0.3 F750.0 E15        ; Second line
G1 E-5 F1800                       ; Filament Retract
M82                                ; set absolute positioning for extruder
G92 E0                             ; Reset extrudeur
G1 Z1.0 F3000                      ; Moving up slightly the nozzle
G1 E-4.0000 F2400 ; e-retract 4
M106 S0
M140 S60 T0
G1 Z0.3200 F205
; feature shells
G1 X105.3886 Y110.0464 F3600
G1 E0.0000 F2400 ; e-engage 4
G1 X105.7260 Y110.0090 E0.0170 F836
G1 X105.8553 Y109.9890 E0.0236
G1 X106.1092 Y109.9402 E0.0366
G1 X106.3162 Y109.8897 E0.0472
G1 X106.5219 Y109.8297 E0.0580
G1 X106.6833 Y109.7763 E0.0665
G1 X106.8687 Y109.7061 E0.0765
G1 X107.0527 Y109.6291 E0.0865
G1 X107.4054 Y109.4565 E0.1062
G1 X107.6854 Y109.2930 E0.1224
G1 X107.8650 Y109.1751 E0.1332
G1 X108.0384 Y109.0506 E0.1439
G1 X108.2237 Y108.9051 E0.1557
G1 X108.3745 Y108.7762 E0.1657
G1 X108.5076 Y108.6509 E0.1748
G1 X108.6593 Y108.4980 E0.1856
G1 X108.8526 Y108.2820 E0.2002
G1 X109.0898 Y107.9807 E0.2194
G1 X109.2816 Y107.6900 E0.2369
G1 X109.4523 Y107.3871 E0.2543
G1 X109.5991 Y107.0717 E0.2718
G1 X109.7232 Y106.7472 E0.2892
G1 X109.8236 Y106.4187 E0.3064
G1 X109.9003 Y106.0770 E0.3240
G1 X109.9513 Y105.7453 E0.3408
G1 X109.9845 Y105.3796 E0.3592
G1 X109.9864 Y105.1713 E0.3697
G1 X109.9777 Y104.9704 E0.3798
G1 X109.9610 Y104.7727 E0.3897
G1 X109.9368 Y104.5772 E0.3996
G1 X109.9068 Y104.3805 E0.4096
G1 X109.8661 Y104.1854 E0.4196
G1 X109.8187 Y103.9943 E0.4294
G1 X109.7638 Y103.8063 E0.4393
G1 X109.7017 Y103.6196 E0.4491
G1 X109.6114 Y103.3860 E0.4617
G1 X109.4735 Y103.0795 E0.4786
G1 X109.2866 Y102.7415 E0.4979
G1 X109.1820 Y102.5759 E0.5077
G1 X109.0723 Y102.4171 E0.5174
G1 X108.8997 Y102.1904 E0.5317
G1 X108.7104 Y101.9703 E0.5463
G1 X108.5768 Y101.8305 E0.5560
G1 X108.3548 Y101.6219 E0.5713
G1 X108.2025 Y101.4938 E0.5812
G1 X107.8939 Y101.2623 E0.6006
G1 X107.6868 Y101.1276 E0.6130
G1 X107.5216 Y101.0323 E0.6225
G1 X107.2192 Y100.8784 E0.6396
G1 X107.0407 Y100.8011 E0.6493
G1 X106.8635 Y100.7319 E0.6589
G1 X106.6828 Y100.6677 E0.6685
G1 X106.4977 Y100.6127 E0.6782
G1 X106.3125 Y100.5655 E0.6877
G1 X106.1429 Y100.5311 E0.6964
G1 X105.8952 Y100.4925 E0.7090
G1 X105.5627 Y100.4530 E0.7258
G1 X105.2417 Y100.4350 E0.7419
G1 X104.9205 Y100.4349 E0.7580
G1 X104.5990 Y100.4558 E0.7742
G1 X104.2804 Y100.4984 E0.7903
G1 X103.9658 Y100.5617 E0.8064
G1 X103.6568 Y100.6469 E0.8225
G1 X103.3767 Y100.7434 E0.8373
G1 X103.0768 Y100.8720 E0.8537
G1 X102.9083 Y100.9560 E0.8631
G1 X102.7628 Y101.0343 E0.8714
G1 X102.5743 Y101.1486 E0.8825
G1 X102.3181 Y101.3224 E0.8980
G1 X102.0289 Y101.5468 E0.9164
G1 X101.7890 Y101.7612 E0.9325
G1 X101.5656 Y101.9927 E0.9487
G1 X101.3567 Y102.2390 E0.9648
G1 X101.1679 Y102.4999 E0.9810
G1 X100.9955 Y102.7725 E0.9972
G1 X100.8428 Y103.0543 E1.0133
G1 X100.7083 Y103.3303 E1.0287
G1 X100.6323 Y103.5053 E1.0382
G1 X100.5685 Y103.6669 E1.0469
G1 X100.5058 Y103.8478 E1.0565
G1 X100.4504 Y104.0312 E1.0662
G1 X100.4033 Y104.2189 E1.0759
G1 X100.3648 Y104.4064 E1.0855
G1 X100.3329 Y104.5953 E1.0951
G1 X100.3125 Y104.7498 E1.1029
G1 X100.2850 Y105.1207 E1.1215
G1 X100.2825 Y105.3117 E1.1311
G1 X100.2880 Y105.5033 E1.1407
G1 X100.3218 Y105.8793 E1.1597
G1 X100.3850 Y106.2542 E1.1787
G1 X100.4522 Y106.5339 E1.1932
G1 X100.5380 Y106.8109 E1.2077
G1 X100.6457 Y107.0957 E1.2230
G1 X100.7566 Y107.3466 E1.2367
G1 X100.9061 Y107.6338 E1.2530
G1 X101.0103 Y107.8101 E1.2632
G1 X101.2354 Y108.1394 E1.2833
G1 X101.3858 Y108.3314 E1.2955
G1 X101.4915 Y108.4556 E1.3037
G1 X101.6295 Y108.6065 E1.3139
G1 X101.7737 Y108.7518 E1.3242
G1 X101.9249 Y108.8910 E1.3345
G1 X102.0807 Y109.0217 E1.3447
G1 X102.2420 Y109.1476 E1.3550
G1 X102.4651 Y109.3050 E1.3686
G1 X102.7423 Y109.4668 E1.3847
G1 X103.0393 Y109.6145 E1.4014
G1 X103.3565 Y109.7477 E1.4186
G1 X103.6870 Y109.8600 E1.4361
G1 X104.0224 Y109.9469 E1.4535
G1 X104.3640 Y110.0104 E1.4709
G1 X104.7095 Y110.0474 E1.4884
G1 X105.0575 Y110.0594 E1.5058
G1 X105.3886 Y110.0464 E1.5225
G1 X105.5354 Y110.7748 F3600
G1 X105.8895 Y110.7312 E1.5404 F763
G1 X106.2413 Y110.6655 E1.5583
G1 X106.5871 Y110.5786 E1.5762
G1 X106.9275 Y110.4703 E1.5941
G1 X107.2609 Y110.3408 E1.6120
G1 X107.5849 Y110.1919 E1.6299
G1 X107.9000 Y110.0227 E1.6479
G1 X108.2036 Y109.8351 E1.6658
G1 X108.4952 Y109.6284 E1.6837
G1 X108.7738 Y109.4040 E1.7016
G1 X109.0376 Y109.1634 E1.7195
G1 X109.2861 Y108.9072 E1.7374
G1 X109.5182 Y108.6364 E1.7553
G1 X109.7337 Y108.3514 E1.7732
G1 X109.9309 Y108.0537 E1.7912
G1 X110.1098 Y107.7442 E1.8091
G1 X110.2692 Y107.4245 E1.8270
G1 X110.4084 Y107.0947 E1.8450
G1 X110.5273 Y106.7584 E1.8629
G1 X110.6249 Y106.4143 E1.8808
G1 X110.7014 Y106.0650 E1.8987
G1 X110.7564 Y105.7124 E1.9166
G1 X110.7893 Y105.3568 E1.9345
G1 X110.7999 Y105.0000 E1.9524
G1 X110.7893 Y104.6432 E1.9703
G1 X110.7564 Y104.2876 E1.9883
G1 X110.7014 Y103.9350 E2.0062
G1 X110.6249 Y103.5857 E2.0241
G1 X110.5273 Y103.2416 E2.0420
G1 X110.4084 Y102.9053 E2.0599
G1 X110.2692 Y102.5755 E2.0779
G1 X110.1098 Y102.2558 E2.0958
G1 X109.9309 Y101.9463 E2.1137
G1 X109.7337 Y101.6486 E2.1316
G1 X109.5182 Y101.3636 E2.1495
G1 X109.2861 Y101.0928 E2.1674
G1 X109.0376 Y100.8366 E2.1853
G1 X108.7738 Y100.5960 E2.2032
G1 X108.4952 Y100.3716 E2.2212
G1 X108.2036 Y100.1649 E2.2391
G1 X107.9000 Y99.9773 E2.2570
G1 X107.5849 Y99.8081 E2.2749
G1 X107.2609 Y99.6592 E2.2928
G1 X106.9275 Y99.5297 E2.3108
G1 X106.5871 Y99.4214 E2.3287
G1 X106.2413 Y99.3345 E2.3466
G1 X105.8895 Y99.2688 E2.3645
G1 X105.5354 Y99.2252 E2.3824
G1 X105.1788 Y99.2030 E2.4003
G1 X104.8212 E2.4183
G1 X104.4646 Y99.2252 E2.4362
G1 X104.1105 Y99.2688 E2.4541
G1 X103.7587 Y99.3345 E2.4720
G1 X103.4129 Y99.4214 E2.4899
G1 X103.0725 Y99.5297 E2.5078
G1 X102.7391 Y99.6592 E2.5258
G1 X102.4151 Y99.8081 E2.5437
G1 X102.1000 Y99.9773 E2.5616
G1 X101.7964 Y100.1649 E2.5795
G1 X101.5048 Y100.3716 E2.5974
G1 X101.2262 Y100.5960 E2.6154
G1 X100.9624 Y100.8366 E2.6333
G1 X100.7139 Y101.0928 E2.6512
G1 X100.4818 Y101.3636 E2.6691
G1 X100.2663 Y101.6486 E2.6870
G1 X100.0691 Y101.9463 E2.7049
G1 X99.8902 Y102.2558 E2.7228
G1 X99.7308 Y102.5755 E2.7407
G1 X99.5916 Y102.9053 E2.7587
G1 X99.4727 Y103.2416 E2.7766
G1 X99.3751 Y103.5857 E2.7945
G1 X99.2986 Y103.9350 E2.8125
G1 X99.2436 Y104.2876 E2.8304
G1 X99.2107 Y104.6432 E2.8483
G1 X99.2001 Y105.0000 E2.8662
G1 X99.2107 Y105.3568 E2.8841
G1 X99.2436 Y105.7124 E2.9020
G1 X99.2986 Y106.0650 E2.9199
G1 X99.3751 Y106.4143 E2.9378
G1 X99.4727 Y106.7584 E2.9558
G1 X99.5916 Y107.0947 E2.9736
G1 X99.7308 Y107.4245 E2.9916
G1 X99.8902 Y107.7442 E3.0095
G1 X100.0691 Y108.0537 E3.0274
G1 X100.2663 Y108.3514 E3.0454
G1 X100.4818 Y108.6364 E3.0633
G1 X100.7139 Y108.9072 E3.0812
G1 X100.9624 Y109.1634 E3.0991
G1 X101.2262 Y109.4040 E3.1170
G1 X101.5048 Y109.6284 E3.1349
G1 X101.7964 Y109.8351 E3.1528
G1 X102.1000 Y110.0227 E3.1707
G1 X102.4151 Y110.1919 E3.1887
G1 X102.7391 Y110.3408 E3.2066
G1 X103.0725 Y110.4703 E3.2245
G1 X103.4129 Y110.5786 E3.2424
G1 X103.7587 Y110.6655 E3.2603
G1 X104.1105 Y110.7312 E3.2783
G1 X104.4646 Y110.7748 E3.2961
G1 X104.8212 Y110.7970 E3.3141
G1 X105.1788 E3.3320
G1 X105.5354 Y110.7748 E3.3499
G1 X102.3903 Y109.7245 F3600
G1 X102.2486 Y109.6418 E3.3582 F659
G1 X102.0035 Y109.4689 E3.3732
G1 X101.8290 Y109.3327 E3.3843
G1 X101.6607 Y109.1915 E3.3953
G1 X101.4962 Y109.0399 E3.4065
G1 X101.3399 Y108.8825 E3.4177
G1 X101.1915 Y108.7203 E3.4287
G1 X101.0759 Y108.5844 E3.4376
G1 X100.9125 Y108.3759 E3.4509
G1 X100.6726 Y108.0250 E3.4722
G1 X100.5563 Y107.8280 E3.4837
G1 X100.3959 Y107.5200 E3.5011
G1 X100.2755 Y107.2474 E3.5161
G1 X100.1595 Y106.9410 E3.5325
G1 X100.0663 Y106.6399 E3.5483
G1 X99.9928 Y106.3342 E3.5641
G1 X99.9249 Y105.9306 E3.5846
G1 X99.8885 Y105.5270 E3.6049
G1 X99.8825 Y105.3148 E3.6156
G1 X99.8851 Y105.1034 E3.6262
G1 X99.9144 Y104.7088 E3.6460
G1 X99.9373 Y104.5358 E3.6548
G1 X99.9716 Y104.3328 E3.6651
G1 X100.0132 Y104.1299 E3.6755
G1 X100.0647 Y103.9247 E3.6861
G1 X100.1252 Y103.7245 E3.6966
G1 X100.1933 Y103.5279 E3.7070
G1 X100.2628 Y103.3521 E3.7165
G1 X100.3449 Y103.1630 E3.7269
G1 X100.4870 Y102.8714 E3.7431
G1 X100.6502 Y102.5701 E3.7603
G1 X100.8365 Y102.2754 E3.7778
G1 X101.0417 Y101.9920 E3.7954
G1 X101.2689 Y101.7242 E3.8130
G1 X101.5114 Y101.4728 E3.8305
G1 X101.7727 Y101.2393 E3.8481
G1 X102.0830 Y100.9986 E3.8678
G1 X102.3582 Y100.8119 E3.8844
G1 X102.5641 Y100.6870 E3.8965
G1 X102.7242 Y100.6008 E3.9056
G1 X102.9086 Y100.5089 E3.9160
G1 X103.2325 Y100.3700 E3.9336
G1 X103.5384 Y100.2646 E3.9499
G1 X103.8731 Y100.1724 E3.9673
G1 X104.2143 Y100.1037 E3.9847
G1 X104.5595 Y100.0575 E4.0022
G1 X104.9076 Y100.0349 E4.0197
G1 X105.2530 Y100.0350 E4.0370
G1 X105.5975 Y100.0543 E4.0543
G1 X105.9497 Y100.0961 E4.0721
G1 X106.2135 Y100.1373 E4.0855
G1 X106.4016 Y100.1754 E4.0951
G1 X106.6042 Y100.2270 E4.1056
G1 X106.8069 Y100.2874 E4.1162
G1 X107.0031 Y100.3571 E4.1267
G1 X107.1930 Y100.4311 E4.1369
G1 X107.3896 Y100.5163 E4.1476
G1 X107.7123 Y100.6806 E4.1658
G1 X107.8959 Y100.7864 E4.1764
G1 X108.1232 Y100.9342 E4.1900
G1 X108.4515 Y101.1805 E4.2106
G1 X108.6207 Y101.3229 E4.2217
G1 X108.8586 Y101.5464 E4.2381
G1 X109.0068 Y101.7016 E4.2488
G1 X109.2107 Y101.9386 E4.2645
G1 X109.3961 Y102.1821 E4.2799
G1 X109.5158 Y102.3552 E4.2904
G1 X109.6311 Y102.5378 E4.3013
G1 X109.8315 Y102.9004 E4.3220
G1 X109.9806 Y103.2317 E4.3403
G1 X110.0782 Y103.4843 E4.3538
G1 X110.1457 Y103.6871 E4.3646
G1 X110.2050 Y103.8901 E4.3752
G1 X110.2562 Y104.0964 E4.3858
G1 X110.3006 Y104.3095 E4.3967
G1 X110.3330 Y104.5225 E4.4076
G1 X110.3589 Y104.7312 E4.4181
G1 X110.3770 Y104.9449 E4.4289
G1 X110.3864 Y105.1645 E4.4399
G1 X110.3844 Y105.3908 E4.4512
G1 X110.3898 Y105.3324 E4.4542
G1 X110.3997 Y105.0000 E4.4709
G1 X110.3898 Y104.6676 E4.4875
G1 X110.3593 Y104.3369 E4.5042
G1 X110.3080 Y104.0087 E4.5209
G1 X110.2368 Y103.6831 E4.5376
G1 X110.1460 Y103.3630 E4.5543
G1 X110.0353 Y103.0498 E4.5709
G1 X109.9057 Y102.7429 E4.5876
G1 X109.7572 Y102.4452 E4.6043
G1 X109.5907 Y102.1572 E4.6210
G1 X109.4070 Y101.8798 E4.6377
G1 X109.2065 Y101.6146 E4.6544
G1 X108.9905 Y101.3625 E4.6710
G1 X108.7590 Y101.1239 E4.6877
G1 X108.5134 Y100.8998 E4.7044
G1 X108.2539 Y100.6908 E4.7211
G1 X107.9826 Y100.4985 E4.7377
G1 X107.7002 Y100.3240 E4.7544
G1 X107.4065 Y100.1664 E4.7711
G1 X107.1049 Y100.0277 E4.7878
G1 X106.7943 Y99.9071 E4.8045
G1 X106.4776 Y99.8064 E4.8211
G1 X106.1557 Y99.7254 E4.8378
G1 X105.8282 Y99.6642 E4.8545
G1 X105.4986 Y99.6237 E4.8712
G1 X105.1663 Y99.6030 E4.8879
G1 X104.8337 E4.9045
G1 X104.5014 Y99.6237 E4.9212
G1 X104.1718 Y99.6642 E4.9379
G1 X103.8443 Y99.7254 E4.9546
G1 X103.5224 Y99.8064 E4.9712
G1 X103.2057 Y99.9071 E4.9879
G1 X102.8951 Y100.0277 E5.0046
G1 X102.5935 Y100.1664 E5.0213
G1 X102.2998 Y100.3240 E5.0380
G1 X102.0174 Y100.4985 E5.0546
G1 X101.7461 Y100.6908 E5.0713
G1 X101.4866 Y100.8998 E5.0880
G1 X101.2410 Y101.1239 E5.1047
G1 X101.0095 Y101.3625 E5.1214
G1 X100.7935 Y101.6146 E5.1380
G1 X100.5930 Y101.8798 E5.1547
G1 X100.4093 Y102.1572 E5.1714
G1 X100.2428 Y102.4452 E5.1881
G1 X100.0943 Y102.7429 E5.2048
G1 X99.9647 Y103.0498 E5.2215
G1 X99.8540 Y103.3630 E5.2381
G1 X99.7632 Y103.6831 E5.2548
G1 X99.6920 Y104.0087 E5.2715
G1 X99.6407 Y104.3369 E5.2882
G1 X99.6102 Y104.6676 E5.3049
G1 X99.6003 Y105.0000 E5.3215
G1 X99.6102 Y105.3324 E5.3382
G1 X99.6407 Y105.6631 E5.3549
G1 X99.6920 Y105.9913 E5.3715
G1 X99.7632 Y106.3169 E5.3883
G1 X99.8540 Y106.6370 E5.4049
G1 X99.9647 Y106.9502 E5.4216
G1 X100.0943 Y107.2571 E5.4383
G1 X100.2428 Y107.5548 E5.4550
G1 X100.4093 Y107.8428 E5.4717
G1 X100.5930 Y108.1202 E5.4884
G1 X100.7935 Y108.3854 E5.5050
G1 X101.0095 Y108.6375 E5.5217
G1 X101.2410 Y108.8761 E5.5384
G1 X101.4866 Y109.1002 E5.5550
G1 X101.7461 Y109.3092 E5.5718
G1 X102.0174 Y109.5015 E5.5884
G1 X102.2998 Y109.6760 E5.6051
G1 X102.3903 Y109.7245 E5.6102
G1 E1.6102 F2400 ; e-retract 4
G1 Z0.5200 F205 ; z-hop start
M106 S254.99999999999997
M104 S200 T0
G1 Z0.4200
; feature shells
G1 X104.9217 Y110.0117 F3600
G1 E5.6102 F2400 ; e-engage 4
G1 X105.1875 Y109.9969 E5.6144 F1564
G1 X105.3796 Y109.9764 E5.6174
G1 X105.5831 Y109.9451 E5.6207
G1 X105.7840 Y109.9057 E5.6239
G1 X105.9645 Y109.8627 E5.6268
G1 X106.1776 Y109.8020 E5.6302
